!!!COM:	Bach, Johann Sebastian
!!!CDT:	1685/02/21/-1750/07/28/
!!!OTL@@DE:	Wo soll ich fliehen hin
!!!SCT:	BWV 136/6
!!!PC#:	331
!!!AGN:	chorale
**kern	**kern	**kern	**kern
*ICvox	*ICvox	*ICvox	*ICvox
*Ibass	*Itenor	*Ialto	*Isoprn
*I"Bass	*I"Tenor	*I"Alto	*I"Soprano
*clefF4	*clefGv2	*clefG2	*clefG2
*k[f#c#]	*k[f#c#]	*k[f#c#]	*k[f#c#]
*b:	*b:	*b:	*b:
*M4/4	*M4/4	*M4/4	*M4/4
*met(c)	*met(c)	*met(c)	*met(c)
*MM100	*MM100	*MM100	*MM100
4B	4d	4f#	4b
=1	=1	=1	=1
4e	4e	4g	4b
4A#	4e	4f#	4cc#
8BL	4d	4f#	4dd
8AJ	.	.	.
4G	8c#L	4g	4ee
.	8BJ	.	.
=2	=2	=2	=2
2.F#;	2.A#;	2.c#;	2.ff#;
4E	4A#	4f#	4ff#
=3	=3	=3	=3
4D	4B	4g#	4ff#
4C#	4c#	4a#	4ee
4BB	4d	4b	4dd
4E	4gnX	4cc#	4ee
=4	=4	=4	=4
2.F#;	2.f#;	2.a#;	2.cc#;
4F#	4F#	4a#	4cc#
=5	=5	=5	=5
4BB	4F#	4b	4dd
4C#	4A	4e	4ee
8DL	4.A	4d	4ff#
8E	.	.	.
8F#	.	4a	4ff#
8GJ	8B	.	.
=6	=6	=6	=6
8AL	2c#	2a	2ee
8BJ	.	.	.
8AL	.	.	.
8GJ	.	.	.
8F#;L	4c#;	4a#;	4ff#;
8G#J	.	.	.
8A#L	4c#	4f#	4ff#
8F#J	.	.	.
=7	=7	=7	=7
4B	4B	8f#L	4dd
.	.	8g#J	.
8AnXL	4c#	4anX	4ee
8GnXJ	.	.	.
8F#L	4d	4a	4ff#
8EJ	.	.	.
8DL	4d	4a	4ff#
8F#J	.	.	.
=8	=8	=8	=8
8GL	4d	4b	2ee
8EJ	.	.	.
8AL	4c#	4a	.
8AAJ	.	.	.
4D;	4f#;	4a;	4dd;
4d	4d	4a	4ff#
=9	=9	=9	=9
4c#	4e	4a	4aa
4d	8AL	4dd	4ff#
.	8dJ	.	.
4A#	8eL	4cc#	4ff#
.	8c#J	.	.
8BL	4d	4b	4ff#
8AJ	.	.	.
=10	=10	=10	=10
8G#L	2d	2b	2ee
8F#J	.	.	.
8G#L	.	.	.
8EJ	.	.	.
4A;	4c#;	4e;	4ee;
4G	4B	4b	4ee
=11	=11	=11	=11
8F#L	4A#	4cc#	4ff#
8EJ	.	.	.
8DL	4A#	4cc#	4ee
8C#J	.	.	.
8BBL	4B	4f#	4dd
8AJ	.	.	.
8GL	4B	4g	8eeL
8F#J	.	.	8ddJ
=12	=12	=12	=12
8EL	4B	4g	2cc#
8C#J	.	.	.
8F#L	8A#L	4f#	.
8FF#J	8eJ	.	.
4BB;	4d#;	4f#;	4b;
==	==	==	==
*-	*-	*-	*-
!!!hum2abc: -Q ''
!!!title: @{PC#}. @{OTL@@DE}
!!!YOR1: 371 vierstimmige Choralges&auml;nge von Johann Sebastian Bach, 
!!!YOR2: 4th ed. by Alfred D&ouml;rffel (Leipzig: Breitkopf und H&auml;rtel, 
!!!YOR2: c.1875). 178 pp. Plate "V.A.10".  reprint: J.S. Bach, 371 Four-Part 
!!!YOR4: Chorales (New York: Associated Music Publishers, Inc., c.1940).
!!!SMS: B&H, 4th ed, Alfred D&ouml;rffel, c.1875, plate V.A.10
!!!EED:  Craig Stuart Sapp
!!!EEV:  2009/05/22
